X:1
T:Title
%%score { 1 | 2 }
L:1/8
M:3/4
K:D
V:1 treble nm="Grand Piano"
V:2 bass 
V:1
 z2 z2[Q:1/4=100] [A,DF]>[A,EG] | [DFA]3 [DGB] [DFA]>[A,DF] | [G,CE] [F,D]3[K:treble] [FA]>[FA] | %3
 [GB]3 [Gd] [FA]>[DF] |[M:2/4] [FA]4 |[M:1/4] [FA]>[FA] |[M:3/4] c3 c B>A | [Fd]2 [FA]2 D>E | %8
 F3 B A>F |[M:2/4] [CE]4 |[M:1/4] [CF]>[CE] |[M:3/4] [A,D]3 [DF] [FA]>[FA] | [GB] [FA]3 [FA]>[FA] | %13
 [Fd]3 [Ad] [^Gd]>[=Gd] |[M:2/4] [Fd]4 |[M:1/4] [Ac]>[GB] |[M:3/4] [FA]3 [FA] [GB]>[FA] | %17
 [FA] [A,DF]3 [^G,D]>[G,DE] | [A,DF]3[K:bass] [F,D] [A,CF]>[G,CE] |[M:2/4] [F,A,D]4 | %20
[M:1/4][K:treble] [A,CF]>[G,CE] |[M:3/4] [F,A,D]3 [A,DF] [FA]>[FA] | [GB] [FA]3 [FA]>[FA] | %23
 [Fd]3 [Ad] [^Gd]>[=Gd] |[M:2/4] [Fd]4 |[M:1/4] [Ac]>[GB] |[M:3/4] [FA]3 [FA] [GB]>[FA] | %27
 [FA] [A,DF]3 [^G,D]>[G,DE] | [A,DF]3[K:bass] [F,D] [A,CF]>[G,CE] |[M:2/4] [F,A,D]4 |] %30
V:2
 z2 z2 D,>D, | D,3 D, D,>D, | A,, D,3 [D,D]>[D,D] | [D,D]3 [D,B,] [D,D]>[D,A,] |[M:2/4] [D,D]4 | %5
[M:1/4] [D,D]>[D,D] |[M:3/4][K:treble] [A,EG]3 [A,EG] [A,DG]>[A,CG] | %7
 [D,A,]2 [D,D]2 [F,A,]>[E,A,C] | [D,A,D]3 [D,G,D] [D,F,D]>[D,A,D] |[M:2/4] [A,,A,]4 | %10
[M:1/4] [A,,A,]>[A,,G,] |[M:3/4] [D,F,]3 [D,A,] [D,D]>[D,D] | [D,D] [D,D]3 [D,D]>[D,D] | %13
 [D,A,]3 [D,=C] [D,B,]>[D,^A,] |[M:2/4] [D,A,]4 |[M:1/4] [D,D]>[D,D] | %16
[M:3/4] [D,D]3 [D,D] [D,D]>[D,D] | [D,D] D,3 B,,>B,, | A,,3 A,, A,,>A,, |[M:2/4] D,4 | %20
[M:1/4] A,,>A,, |[M:3/4] D,3 D, [D,D]>[D,D] | [D,D] [D,D]3 [D,D]>[D,D] | %23
 [D,A,]3 [D,=C] [D,B,]>[D,^A,] |[M:2/4] [D,A,]4 |[M:1/4] [D,D]>[D,D] | %26
[M:3/4] [D,D]3 [D,D] [D,D]>[D,D] | [D,D] D,3 B,,>B,, | A,,3 A,, A,,>A,, |[M:2/4] D,4 |] %30

